public/avatar/body/24.svg

<svg xmlns:xlink="http://www.w3.org/1999/xlink" height="82" width="84.85" xmlns="http://www.w3.org/2000/svg"><g transform="translate(37.4 42.25)"><use height="38" transform="translate(-11.95 -17.45)" width="32.05" xlink:href="#a"/><use height="21.6" transform="translate(-12.25 -17.95)" width="32.65" xlink:href="#b"/><use height="19" transform="translate(-14.6 2)" width="37" xlink:href="#c"/></g><defs><path d="M27.35 7.4q2.15 4.15 3.55 8.75 1.45 4.7 1.15 9.5-.35 4.95-4.2 8.1-3.8 3.2-8.75 4.05l-2.6.2q-3.6 0-7.05-1.15-4.65-1.6-7.1-5.5Q-.2 27.4.05 23q.2-4.4 2-9.3Q3.85 8.75 7 5.05 10.1 1.3 14.7.1l1.8-.1q1.9.05 3.7.8 4.75 2.05 7.15 6.6" fill="#fff" fill-rule="evenodd" transform="translate(-.05)" id="d"/><path d="M31.9 20.6q-.3-2.25-1-4.45-1.4-4.6-3.55-8.75-2.4-4.55-7.15-6.6-2.65-1.1-5.5-.7Q10.1 1.3 7 5.05q-3.15 3.7-4.95 8.65Q.7 17.3.25 20.6" fill="none" stroke="#000" stroke-linecap="round" stroke-linejoin="round" transform="translate(.25 .5)" id="e"/><use height="38" width="32.05" xlink:href="#d" id="a"/><use height="21.6" width="32.65" xlink:href="#e" id="b"/><g id="c"><path d="m17.65 3.9 2.9-1.4q1.15.5 1.35 1.8l-.15.3-1.65 1.75-3.55 2.05-1.45.6 1.45-.6.3.85q1.05 3.2-.1 6.3l-.1.1-.8.65L11 19.25q1.65-1.75 1.9-4.3.2-2.5-.45-4.95l2.65-1-2.65 1-2.6.65-.05-1q-.25-1.55-1.4-2.7L14 5.5l3.65-1.6q.55 0 .95.75.4.75.4 1.85 0-1.1-.4-1.85t-.95-.75M15.1 9l.05-1.05Q15.2 6.3 14 5.5q1.2.8 1.15 2.45L15.1 9M-1.2 19.55l-.35-.1q-3.3-1.1-5.8-3.5l-.5-.55-.05-.05q-.9-3-.8-6l.1-1.4 3.6 1.5 1.95.6-1.95-.6.65-3.5 2.2.65 6.9.7.65 3.85 2.5-.2q1 3.6-.45 7Q7 19.1 5.95 19.9l-1.2.05 1.2-.05-.9.6-.3-.55-.75-1.3q-1.85-3.55-1.75-7.6l3.15.1-3.15-.1-5.3-1 .25 3.75q.2 1.6 1.15 2.95L.5 20l-.65-.15-1.05-.3m-10.7-13.4-.9-.3-1.05-1.15q-.6-1.2.3-1.85h.7l3.5 1.1q-1.05.95-.95 2.3l.2.9-1.8-1M.9 7.5l-.35.55q-.55 1-.5 2.15Q0 9.05.55 8.05L.9 7.5" fill="#018352" fill-rule="evenodd" transform="translate(14.6 -2)"/><path d="m16.55 8.4 3.55-2.05q.15 1.55-.2 3.15-.7 3.5-3.15 6.05 1.15-3.1.1-6.3l-.3-.85M11 19.25l-1.55.55-2.35.55-2.05.15-4-.45L.5 20l-2.15-3.25Q-2.6 15.4-2.8 13.8l-.25-3.75 5.3 1q-.1 4.05 1.75 7.6l.75 1.3-3.7.1 3.7-.1.3.55.9-.6q1.05-.8 1.5-1.95 1.45-3.4.45-7l-2.5.2-.65-3.85 3.65-.35q1.15 1.15 1.4 2.7l.05 1 2.6-.65q.65 2.45.45 4.95-.25 2.55-1.9 4.3m-18.9-3.9-1.65-2.3q-2.05-3.1-2.35-6.9l1.8 1-.2-.9q-.1-1.35.95-2.3l5 2-.65 3.5-3.6-1.5-.1 1.4q-.1 3 .8 6m17.75-4.7-1.95.3 1.95-.3m-.4 9.15-3.5.1 3.5-.1M-10.1 7.15l1.5.8-1.5-.8" fill="#096" fill-rule="evenodd" transform="translate(14.6 -2)"/><path d="m20.1 6.35 1.65-1.75.15-.3q-.2-1.3-1.35-1.8l-2.9 1.4L14 5.5 8.4 6.95l-3.65.35-6.9-.7-2.2-.65-5-2-3.5-1.1h-.7q-.9.65-.3 1.85l1.05 1.15.9.3q.3 3.8 2.35 6.9l1.65 2.3.05.05M15.1 9l1.45-.6 3.55-2.05q.15 1.55-.2 3.15-.7 3.5-3.15 6.05m-.1.1-.8.65L11 19.25l-1.55.55-2.35.55-2.05.15-4-.45-.55.05-.65-.25.7.3-1.75-.6-.35-.1q-3.3-1.1-5.8-3.5M15.1 9l-2.65 1-2.6.65-1.95.3-2.5.2-3.15-.1-5.3-1-1.95-.6-3.6-1.5-1.5-.8-1.8-1m16.65 13.8 1.2-.05 3.5-.1m-8.4.25L.5 20l-.65-.15-1.05-.3m5.95.4-3.7.1" fill="none" stroke="#000" stroke-linecap="round" stroke-linejoin="round" transform="translate(14.6 -2)"/><path d="M17.65 3.9q.55 0 .95.75.4.75.4 1.85m-5-1q1.2.8 1.15 2.45L15.1 9m1.65 6.55-.1.1M.5 20.1l.05.05m-7.9-4.2-.5-.55m20.3-5.4q.65 2.45.45 4.95-.25 2.55-1.9 4.3M16.55 8.4l.3.85q1.05 3.2-.1 6.3M.05 10.2Q0 9.05.55 8.05L.9 7.5m7.5-.55q1.15 1.15 1.4 2.7l.05 1m-7.6.4q-.1 4.05 1.75 7.6l.75 1.3.3.55.9-.6q1.05-.8 1.5-1.95 1.45-3.4.45-7m-2.5.2L4.75 7.3M.5 20v.1M-5 9.45l.65-3.5m-3.55 9.4q-.9-3-.8-6l.1-1.4M.5 20l-2.15-3.25Q-2.6 15.4-2.8 13.8l-.25-3.75m-7.05-2.9-.2-.9q-.1-1.35.95-2.3" fill="none" stroke="#060" stroke-linecap="round" stroke-linejoin="round" transform="translate(14.6 -2)"/></g></defs></svg>

<?xml version="1.0" encoding="UTF-8" standalone="no"?>
<svg xmlns:xlink="http://www.w3.org/1999/xlink" height="82.0px" width="84.85px" xmlns="http://www.w3.org/2000/svg">
  <g transform="matrix(1.0, 0.0, 0.0, 1.0, 37.4, 42.25)">
    <use height="38.0" transform="matrix(1.0, 0.0, 0.0, 1.0, -11.95, -17.45)" width="32.05" xlink:href="#sprite0"/>
    <use height="21.6" transform="matrix(1.0, 0.0, 0.0, 1.0, -12.25, -17.95)" width="32.65" xlink:href="#sprite1"/>
    <use height="19.0" transform="matrix(1.0, 0.0, 0.0, 1.0, -14.6, 2.0)" width="37.0" xlink:href="#shape2"/>
  </g>
  <defs>
    <g id="sprite0" transform="matrix(1.0, 0.0, 0.0, 1.0, -0.05, 0.0)">
      <use height="38.0" transform="matrix(1.0, 0.0, 0.0, 1.0, 0.05, 0.0)" width="32.05" xlink:href="#shape0"/>
    </g>
    <g id="shape0" transform="matrix(1.0, 0.0, 0.0, 1.0, -0.05, 0.0)">
      <path d="M27.35 7.4 Q29.5 11.55 30.9 16.15 32.35 20.85 32.05 25.65 31.7 30.6 27.85 33.75 24.05 36.95 19.1 37.8 L16.5 38.0 Q12.9 38.0 9.45 36.85 4.8 35.25 2.35 31.35 -0.2 27.4 0.05 23.0 0.25 18.6 2.05 13.7 3.85 8.75 7.0 5.05 10.1 1.3 14.7 0.1 L16.5 0.0 Q18.4 0.05 20.2 0.8 24.95 2.85 27.35 7.4" fill="#ffffff" fill-rule="evenodd" stroke="none"/>
    </g>
    <g id="sprite1" transform="matrix(1.0, 0.0, 0.0, 1.0, 0.25, 0.5)">
      <use height="21.6" transform="matrix(1.0, 0.0, 0.0, 1.0, -0.25, -0.5)" width="32.65" xlink:href="#shape1"/>
    </g>
    <g id="shape1" transform="matrix(1.0, 0.0, 0.0, 1.0, 0.25, 0.5)">
      <path d="M31.9 20.6 Q31.6 18.35 30.9 16.15 29.5 11.55 27.35 7.4 24.95 2.85 20.2 0.8 17.55 -0.3 14.7 0.1 10.1 1.3 7.0 5.05 3.85 8.75 2.05 13.7 0.7 17.3 0.25 20.6" fill="none" stroke="#000000" stroke-linecap="round" stroke-linejoin="round" stroke-width="1.0"/>
    </g>
    <g id="shape2" transform="matrix(1.0, 0.0, 0.0, 1.0, 14.6, -2.0)">
      <path d="M17.65 3.9 L20.55 2.5 Q21.7 3.0 21.9 4.3 L21.75 4.6 20.1 6.35 16.55 8.4 15.1 9.0 16.55 8.4 16.85 9.25 Q17.9 12.45 16.75 15.55 L16.65 15.65 15.85 16.3 11.0 19.25 Q12.65 17.5 12.9 14.95 13.1 12.45 12.45 10.0 L15.1 9.0 12.45 10.0 9.85 10.65 9.8 9.65 Q9.55 8.1 8.4 6.95 L14.0 5.5 17.65 3.9 Q18.2 3.9 18.6 4.65 19.0 5.4 19.0 6.5 19.0 5.4 18.6 4.65 18.2 3.9 17.65 3.9 M15.1 9.0 L15.15 7.95 Q15.2 6.3 14.0 5.5 15.2 6.3 15.15 7.95 L15.1 9.0 M-1.2 19.55 L-1.55 19.45 Q-4.85 18.35 -7.35 15.95 L-7.85 15.4 -7.9 15.35 Q-8.8 12.35 -8.7 9.35 L-8.6 7.95 -5.0 9.45 -3.05 10.05 -5.0 9.45 -4.35 5.95 -2.15 6.6 4.75 7.3 5.4 11.15 7.9 10.95 Q8.9 14.55 7.45 17.95 7.0 19.1 5.95 19.9 L4.75 19.95 5.95 19.9 5.05 20.5 4.75 19.95 4.0 18.65 Q2.15 15.1 2.25 11.05 L5.4 11.15 2.25 11.05 -3.05 10.05 -2.8 13.8 Q-2.6 15.4 -1.65 16.75 L0.5 20.0 -0.15 19.85 -1.2 19.55 M-11.9 6.15 L-12.8 5.85 -13.85 4.7 Q-14.45 3.5 -13.55 2.85 L-12.85 2.85 -9.35 3.95 Q-10.4 4.9 -10.3 6.25 L-10.1 7.15 -11.9 6.15 M0.9 7.5 L0.55 8.05 Q0.0 9.05 0.05 10.2 0.0 9.05 0.55 8.05 L0.9 7.5" fill="#018352" fill-rule="evenodd" stroke="none"/>
      <path d="M16.55 8.4 L20.1 6.35 Q20.25 7.9 19.9 9.5 19.2 13.0 16.75 15.55 17.9 12.45 16.85 9.25 L16.55 8.4 M11.0 19.25 L9.45 19.8 7.1 20.35 5.05 20.5 1.05 20.05 0.5 20.0 -1.65 16.75 Q-2.6 15.4 -2.8 13.8 L-3.05 10.05 2.25 11.05 Q2.15 15.1 4.0 18.65 L4.75 19.95 1.05 20.05 4.75 19.95 5.05 20.5 5.95 19.9 Q7.0 19.1 7.45 17.95 8.9 14.55 7.9 10.95 L5.4 11.15 4.75 7.3 8.4 6.95 Q9.55 8.1 9.8 9.65 L9.85 10.65 12.45 10.0 Q13.1 12.45 12.9 14.95 12.65 17.5 11.0 19.25 M-7.9 15.35 L-9.55 13.05 Q-11.6 9.95 -11.9 6.15 L-10.1 7.15 -10.3 6.25 Q-10.4 4.9 -9.35 3.95 L-4.35 5.95 -5.0 9.45 -8.6 7.95 -8.7 9.35 Q-8.8 12.35 -7.9 15.35 M9.85 10.65 L7.9 10.95 9.85 10.65 M9.45 19.8 L5.95 19.9 9.45 19.8 M-10.1 7.15 L-8.6 7.95 -10.1 7.15" fill="#009966" fill-rule="evenodd" stroke="none"/>
      <path d="M20.1 6.35 L21.75 4.6 21.9 4.3 Q21.7 3.0 20.55 2.5 L17.65 3.9 14.0 5.5 8.4 6.95 4.75 7.3 -2.15 6.6 -4.35 5.95 -9.35 3.95 -12.85 2.85 -13.55 2.85 Q-14.45 3.5 -13.85 4.7 L-12.8 5.85 -11.9 6.15 Q-11.6 9.95 -9.55 13.05 L-7.9 15.35 -7.85 15.4 M15.1 9.0 L16.55 8.4 20.1 6.35 Q20.25 7.9 19.9 9.5 19.2 13.0 16.75 15.55 M16.65 15.65 L15.85 16.3 11.0 19.25 9.45 19.8 7.1 20.35 5.05 20.5 1.05 20.05 0.5 20.1 -0.15 19.85 0.55 20.15 -1.2 19.55 -1.55 19.45 Q-4.85 18.35 -7.35 15.95 M15.1 9.0 L12.45 10.0 9.85 10.65 7.9 10.95 5.4 11.15 2.25 11.05 -3.05 10.05 -5.0 9.45 -8.6 7.95 -10.1 7.15 -11.9 6.15 M4.75 19.95 L5.95 19.9 9.45 19.8 M1.05 20.05 L0.5 20.0 -0.15 19.85 -1.2 19.55 M4.75 19.95 L1.05 20.05" fill="none" stroke="#000000" stroke-linecap="round" stroke-linejoin="round" stroke-width="1.0"/>
      <path d="M17.65 3.9 Q18.2 3.9 18.6 4.65 19.0 5.4 19.0 6.5 M14.0 5.5 Q15.2 6.3 15.15 7.95 L15.1 9.0 M16.75 15.55 L16.65 15.65 M0.5 20.1 L0.55 20.15 M-7.35 15.95 L-7.85 15.4 M12.45 10.0 Q13.1 12.45 12.9 14.95 12.65 17.5 11.0 19.25 M16.55 8.4 L16.85 9.25 Q17.9 12.45 16.75 15.55 M0.05 10.2 Q0.0 9.05 0.55 8.05 L0.9 7.5 M8.4 6.95 Q9.55 8.1 9.8 9.65 L9.85 10.65 M2.25 11.05 Q2.15 15.1 4.0 18.65 L4.75 19.95 5.05 20.5 5.95 19.9 Q7.0 19.1 7.45 17.95 8.9 14.55 7.9 10.95 M5.4 11.15 L4.75 7.3 M0.5 20.0 L0.5 20.1 M-5.0 9.45 L-4.35 5.95 M-7.9 15.35 Q-8.8 12.35 -8.7 9.35 L-8.6 7.95 M0.5 20.0 L-1.65 16.75 Q-2.6 15.4 -2.8 13.8 L-3.05 10.05 M-10.1 7.15 L-10.3 6.25 Q-10.4 4.9 -9.35 3.95" fill="none" stroke="#006600" stroke-linecap="round" stroke-linejoin="round" stroke-width="1.0"/>
    </g>
  </defs>
</svg>
